!!!COM: Music21
!!!OTL: A Parolada
!!!OMV: pezas_valses_a-parolada_a-parolada-partitura.musicxml
**kern
*part1
*staff1
*I"Gaita
*I'Bag
*clefG^2
*k[]
*M3/4
*MM90
=1
!LO:TX:a:t=[quarter]=90
4r
4ccc
4bb
=
2.gg
=||
*M2/4
4bb
4aa
=||
*M3/4
2.ff
=||
*M2/4
4dd
4ee
=||
*M3/4
2ff
8ggL
8aaJ
=
2bb
8cccL
8bbJ
=
2aa
[4gg
=
4gg]
4ccc
4bb
=
[2.gg
!!linebreak:original
=
4gg]
4bb
4aa
=
2.ff
!!linebreak:original
=||
*M2/4
4dd
4ee
=||
*M3/4
2ff
8ggL
8aaJ
=
2bb
8aaL
8ggJ
=
[2.ccc
=||
*MM180
!LO:TX:a:t=[quarter]=180
4ccc]
8eeL
8ggJ
8eeL
8ggJ
=||
4.ccc
8ee
[4gg
=
8ggL]
8ggJ
4aa
4ee
=
2ff
[4gg
=
4gg]
8ffL
8ggJ
8ffL
8ggJ
!!linebreak:original
=
4.bb
8gg
[4dd
!!linebreak:original
=
8ddL]
8cccJ
4bb
4gg
=
2ee
[4gg
=
4gg]
8eeL
8ggJ
8eeL
8ggJ
=
4.ccc
8ee
[4gg
=
8ggL]
8ggJ
4aa
4ee
=
2ff
[4gg
=
4gg]
8ffL
8ggJ
8ffL
8ggJ
=
4.bb
8gg
[4dd
=
8ddL]
8bbJ
4gg
4bb
!!pagebreak:original
=
[2.ccc
!!linebreak:original
=
4ccc]
8eeL
8ggJ
8eeL
8ggJ
=||
4.ccc
8ee
[4gg
=
8ggL]
8ggJ
4aa
4ee
=
2ff
[4gg
=
4gg]
8ffL
8ggJ
8ffL
8ggJ
=
4.bb
8gg
[4dd
!!linebreak:original
=
8ddL]
8cccJ
4bb
4gg
=
2ee
[4gg
=
4gg]
8eeL
8ggJ
8eeL
8ggJ
=
4.ccc
8ee
[4gg
=
8ggL]
8ggJ
4aa
4ee
=
2ff
[4gg
=
4gg]
8ffL
8ggJ
8ffL
8ggJ
=
4.bb
8gg
[4dd
=
8ddL]
8bbJ
4gg
4bb
!!linebreak:original
=
[2.ccc
=
4ccc]
8eeL
8ffJ
8ggL
8aaJ
=
[2.gg
.
.
.
.
=
4gg]
8aaL
8ggJ
8ffL
8eeJ
=
[2.ff
.
.
.
.
=
4ff]
8ddL
8eeJ
8ffL
8ggJ
=||
4bb
.
4aa
.
4gg
.
!!linebreak:original
=
4bb
.
4aa
.
4gg
.
=
4ccc
8bbL
8aaJ
[4gg
=
4gg]
8eeL
8ffJ
8ggL
8aaJ
=
[2.gg
.
.
.
.
=
4gg]
8aaL
8ggJ
8ffL
8eeJ
=
[2.ff
.
.
.
.
=
4ff]
8ddL
8eeJ
8ffL
8ggJ
!!linebreak:original
=
8bbL
8aaJ
8ggL
8aaJ
8ggL
8ffJ
!!pagebreak:original
=
8bbL
8aaJ
8ggL
8aaJ
8ggL
8ffJ
=
[2.ee
=
4ee]
8eeL
8ffJ
8ggL
8aaJ
=
[2.gg
.
.
.
.
=
4gg]
8aaL
8ggJ
8ffL
8eeJ
=
[2.ff
.
.
.
.
=
4ff]
8ddL
8eeJ
8ffL
8ggJ
!!linebreak:original
=||
4bb
.
4aa
.
4gg
.
!!linebreak:original
=
4bb
.
4aa
.
4gg
.
=
4ccc
8bbL
8aaJ
[4gg
=
4gg]
8eeL
8ffJ
8ggL
8aaJ
=
[2.gg
.
.
.
.
=
4gg]
8aaL
8ggJ
8ffL
8eeJ
=
[2.ff
.
.
.
.
=
4ff]
8ddL
8eeJ
8ffL
8ggJ
!!linebreak:original
=
8bbL
8aaJ
8ggL
8aaJ
8ggL
8ffJ
=
8ggL
8ffJ
8eeL
8ffJ
8eeL
8ddJ
=||
[2.cc
!!pagebreak:original
=||
*MM185
!LO:TX:a:t=[quarter]=185
4cc]
8ggL
8ffJ
8aaL
8ggJ
=||
8ffL
8eeJ
8ggL
8ffJ
8aaL
8ggJ
=
8ffL
8eeJ
8ggL
8ffJ
8aaL
8ggJ
=
8bbL
8aaJ
8ggL
8bbJ
8aaL
8ggJ
=
4ff
8aaL
8ggJ
8bbL
8aaJ
=
8ggL
8ffJ
8aaL
8ggJ
8bbL
8aaJ
!!linebreak:original
=
8ggL
8ffJ
8ddL
8eeJ
8ffL
8ggJ
!!linebreak:original
=
8bbL
8aaJ
8ggL
8aaJ
8ggL
8ffJ
=
4ee
8ggL
8ffJ
8aaL
8ggJ
=
8bbL
8cccJ
8ggL
8ffJ
8aaL
8ggJ
=
8bbL
8cccJ
8ggL
8ffJ
8aaL
8ggJ
=
8bbL
8aaJ
8ggL
8bbJ
8aaL
8ggJ
=
4ff
8aaL
8ggJ
8bbL
8aaJ
=
8ggL
8ffJ
8aaL
8ggJ
8bbL
8aaJ
!!linebreak:original
=
8ggL
8ffJ
8dddL
8cccJ
8bbL
8aaJ
!!linebreak:original
=
8ggL
8aaJ
8ggL
8ffJ
8eeL
8ddJ
=
[2.cc
=
4cc]
8ggL
8ffJ
8aaL
8ggJ
=||
8ffL
8eeJ
8ggL
8ffJ
8aaL
8ggJ
=
8ffL
8eeJ
8ggL
8ffJ
8aaL
8ggJ
=
8bbL
8aaJ
8ggL
8bbJ
8aaL
8ggJ
=
4ff
8aaL
8ggJ
8bbL
8aaJ
!!linebreak:original
=
8ggL
8ffJ
8aaL
8ggJ
8bbL
8aaJ
=
8ggL
8ffJ
8ddL
8eeJ
8ffL
8ggJ
!!pagebreak:original
=
8bbL
8aaJ
8ggL
8aaJ
8ggL
8ffJ
=
4ee
8ggL
8ffJ
8aaL
8ggJ
=
8bbL
8cccJ
8ggL
8ffJ
8aaL
8ggJ
=
8bbL
8cccJ
8ggL
8ffJ
8aaL
8ggJ
=
8bbL
8aaJ
8ggL
8bbJ
8aaL
8ggJ
=
4ff
8aaL
8ggJ
8bbL
8aaJ
=
8ggL
8ffJ
8aaL
8ggJ
8bbL
8aaJ
!!linebreak:original
=
8ggL
8ffJ
8dddL
8cccJ
8bbL
8aaJ
!!linebreak:original
=
8ggL
8aaJ
8ggL
8ffJ
8eeL
8ddJ
=
2.cc
=
4cc
8eeL
8ggJ
8eeL
8ggJ
=||
*MM90
!LO:TX:a:t=[quarter]=90
[2.cc
=
4cc]
4ccc
4bb
=
[2.gg
.
.
=
4gg]
4bb
4aa
=
[2.ff
.
.
=
4ff]
4dd
4ee
!!linebreak:original
=
2ff
8ggL
8aaJ
=
2bb
8aaL
8ggJ
=
[2.ccc
=
4ccc]
2r
==
*-
!!!system-decoration: s1,s2
